X: 3
T: Portland Fancy (J-42)
I: Portland Fancy	J-42	A/D	jig
M: 6/8
R: jig
K: A
"A"E2A E2A| EAB c2c| "D"dcd "E"Bcd| "D"f2e "E"cAF|
"A"E2A E2A| EAB c2c| "D"dcd "E"EFG|1 "A"AcB AGF:|2 "A"AcB Ace|]
|:"A"a2a gag| "D"fdf e2c| dcd "E"Bcd| "A"cde "E"f2e|
"A"a2a gag| "D"fdf e2c| dcd "E"EFG|1 "A"AcB Ace:|2 "A"AcB AF=G |] 
[K:D]|:"D"ABc d2e| f2g a3| "G"efg "A"Ade| "D"f2d "A"AFG|
"D"ABc d2e| f2g a3| "A"efg ABc| "D"d2f d3:|
|:"D"F2A F2A| FAd f3| "A"ece gec| "D"dfe dAG|
"D"F2A F2A| FAd f3| "A"ece gec| "D"d3 d3:|
%%scale .5
%%text 08/29/98 

#include "RightHeader.h"
% ---------- set 7 ----------
% Charlie Hunter's (D) / Mist Over TN (G) / Aunt Mary's Canadian Jig (D)

%%text Set 7
%%vskip -1cm
